X: 2874
T: Barn Dance Schottische, The
R: barndance
M: 4/4
K: Gmajor
|:B>c|d2 G2 G>DG>A|(3BcB A>^G A2 A>B|c2 F2 F>DF>G|(3ABA G2 G>DB>c|
d2 G2 G2 (3FGA|B2 A2 A2 B2|c2 F2 F>DF>G|A2 G2 G2:|
B,>C|D2 B2 G>GA>B|c2 A2 A2 e2|g2 f>e d>ef>g|a2 g2 g2 f>e|
B2 G2 (3GGG A>B|c2 c>B A2 d>g|f>af>e d>ef>g|a2 g2 g2 E2|
B2 G2 G>GA>B|c2 E2 E>EA>G|F2 D2 D>DE>F|G>FG>B e2 d>c|
B2 G2- G>G A>B|(3cdc c>B (3ABA d>g|f2 f>e d2 (3efg|(3aba g>f g2||

